X: 1
T: Return From Helsinki   [G]
C: Ian Stepenson
R: reel
S: Arrived in my .../demo/Tunes collection 2021-7-22
Z: 2022 John Chambers <jc:trillian.mit.edu> chords + a few tweaks.
M: 4/4
L: 1/8
K: G
|: d4 B2AG | F3G A3D | EFGB A2GF | E2D2 DBcd |\
|  decB A2d2 | B3c cBAG | E2GB A/B/AGF |1 G4- G2D2 :|2 G4 GABd ||
|: e2ed e2cd | efg2 efga | abaf g2fe | dBA2 GABd |\
|  e2ed e2cd | efg2 efga | abaf g2fe |1 dBA2 G2g2 :|2 dBA2- A4 |]
